(Made by a custom postprocessor, use at your own risk)
#region
(Created by SimCam 6/8/2018)
$Millimeters
$Mill
$DefineMillTool "N:" 1 0.00 0.00 0.00 3.00 50.00 0
$DefineMaterial "N:Aluminium" 0 160 160 170 0 0 0 1
$AddRegPart 1
#endregion

% 

G92 Z20 X12.5 Y12.5
T1 M06

(Engrave)

(retangulo contorno da area)
G01 Z5 F100
G01 X0 Y0 
Z-1.5  
Y175  
X175 
Y0 
X0 

G01 Z5 
G01 X106 Y121 
G01 Z-1.5 S1000 M03 
X90 Y149  
X74 Y121

G01 Z5 
X47.526 Y67 
G01 Z-1.5  
X90 Y97  
X132 Y67  

G01 Z5 
X103 Y67 
G01 Z-1.5  
X132  
X120 Y95

G01 Z5
G01 X90 Y97
G01 Z-1.5   
X90 Y150 
G02 I0 J-52 

G01 Z5 
X77 Y67 
G01 Z-1.5  
X47  
X60 Y95 


G01 Z5 
X114 Y17 
G01 Z-1.5  
X90 Y81  
X65 Y17 


G01 Z5
X90 Y46.5
G01 Z-1.5  
X136 Y121
X44 Y121 
X90 Y46.5

G01 Z5 
X69 Y81 
G01 Z-1.5  
X112 Y81  
X90 Y121 
X69 Y81 


(Pocket)
(triangulos)
(T1)
G01 Z5
G01 X73.425 Y109.3 
G01 Z-1.5  
X62.575  
X64.15 Y106.6 
X71.85 
X70.275 Y103.9 
X65.725 
X67.3 Y101.2 
X68.7 
G01 Z5 
X75 Y112 
G01 Z-1.5  
X68 Y98.5  
X60.5 Y112 
X75 

(T2)
G01 Z5 
X117.425 Y109.3 
G01 Z-1.5  
X106.575  
X108.15 Y106.6 
X115.85 
X114.275 Y103.9 
X109.725 
X111.3 Y101.2 
X112.7 
G01 Z5 
X105 Y112
G01 Z-1.5  
X119.5  
X112 Y98.5 
X105 Y112 




(circulos)
(1)
G01 Z5 
X38.767 Y69.6 
G01 Z-1.5  
X43.182  
G01 X45.895 Y66.9 
G01 X36.05 
G01 X35.595 Y64.2 
G01 X46.355 
G01 X45.345 Y61.5 
G01 X36.60
G01 Z5 
X40.975 Y70.072 
G01 Z-1.5  
G03 Y59.27 I0 J-5.4  
G03 Y70.07 I0 J5.4

(2)
G01 Z5 
X34.372 Y129 
G01 Z-1.5  
X41.628  
G01 X43.24 Y126.3 
G01 X32.76 
G01 X32.785 Y123.6 
G01 X43.215 
G01 X41.515 Y120.9 
G01 X34.485
G01 Z5 
X38 Y130.5 
G01 Z-1.5  
G03 Y119.6 I0 J-5.4  
G03 Y130.4 I0 J5.4 

(3)
G01 Z5 
X85.295 Y158.7 
G01 Z-1.5  
X94.647  
G01 X95.37 Y156
G01 X84.57 
G01 X85.295 Y153.3 
G01 X94.645 
G01 Z5 
X89.95 Y161.5 
G01 Z-1.5  
G03 Y150.6 I0 J-5.4  
G03 Y161.4 I0 J5.4 

(4)
G01 Z5 
X138.345 Y129 
G01 Z-1.5  
X145.60  
G01 X147.210 Y126.3 
G01 X136.730 
G01 X136.755 Y123.6
G01 X147.185 
G01 X145.485 Y120.9
G01 X138.455 
G01 Z5 
X141.97 Y130.4 
G01 Z-1.5  
G03 Y119.6 I0 J-5.4  
G03 Y130.4 I0 J5.4

(5)
G01 Z5 
X134.240 Y66.9 
G01 Z-1.5  
X143.550  
G01 X144.295 Y64.2 
G01 X133.495 
G01 X134.20 Y61.5 
G01 X143.595 
G01 X139.530 Y58.8 
G01 X138.260
G01 Z5 
X138.895 Y69.565 
G01 Z-1.5  
G03 Y58.765 I0 J-5.4  
G03 Y69.565 I0 J5.4

(6)
G01 Z5 
X87.325 Y42.6 
G01 Z-1.5  
X92.72  
G01 X95.045 Y39.9 
G01 X84.995 
G01 X84.67 Y37.2 
G01 X95.375 Y37.2 
G01 X94.20 Y34.5 
G01 X85.845 
G01 Z5 
X90.02 Y43.325 
G01 Z-1.5  
G03 Y32.525 I0 J-5.4  
G03 Y43.325 I0 J5.4


G01 Z135.00 
M5
M30
