(Made by a custom postprocessor, use at your own risk)
#region
(Created by SimCam 5/30/2018)
$Millimeters
$Mill
$DefineMillTool "N:" 1 0.00 0.00 0.00 3.00 50.00 0
$DefineMaterial "N:123" 0 222 184 135 255 255 255 1
$DefineMillWorkpiece "N::M:123" 0 200.00 200.00 10.00
$AddDefinedPart 0 0 0 0
#endregion

% 
(Engrave)
G92 Z10
T1 M06

G01 Z10 
X15 Y15 
G01 Z-2 F50 
Y185 F100 
X185 
Y15 
X15 
G01 Z10

G01 X100 Y162 F100
G01 Z-2
G03 I0 J-52
G01 Z10

G01 X113 Y80

G01 Z-2 F50 S1000 
X142 F100 
X100 Y110 
G01 Z10 
X57.526 Y80 
G01 Z-2 F50 
X100 Y110 F100 
Y162 
G01 Z10 
X84 Y134 
G01 Z-2 F50 
X100 Y162 F100   
G01 Z10 
X100 Y162 F100
G01 Z-2
X116 Y134 
G01 Z10 
X87 Y80 
G01 Z-2 F50 
X57 F100 
X70 Y108 
G01 Z10 
X142 Y80 
G01 Z-2 F50 
X130 Y108 F100 
G01 Z10 
X124 Y30 
G01 Z-2 F50 
X100 Y94 F100 
X75 Y30 
G01 Z10 
X48 Y137 
G01 Z-2 F50 
Y138 F100 
Y139 
G01 Z10 
X50 Y78 
G01 Z-2 F50 
X52 F100 
X50 
G01 Z10 
X51 Y79 
G01 Z-2 F50 
Y78 F100 
Y77 
Y78 
Y79 
G01 Z10 
X100 Y167 
G01 Z-2 F50 
Y168 F100 
Y169 
G01 Z10 
X152 Y137 
G01 Z-2 F50 
Y138 F100 
Y139 
G00 Z10 
X149 Y76 
G01 Z-2 F50 
Y77 F100 
Y78 
G01 Z10  
X54 Y134 
G01 Z-2 F50 
X146 F100 
X100 Y58 
X54 Y134 
G00 Z10 
X100 
G01 Z-2 F50 
X121.974 Y94.304 F100 
X77.952 Y94.427 
X100 Y134 
G01 Z10 
X48 Y142 
G01 Z-2 F50 
G03 I0 J-4 F100 
G01 Z10 
X99.978 Y172 
G01 Z-2 F50 
G03 I0 J-4 F100 
G01 Z10 
X151.978 Y142 
G01 Z-2 F50 
G03 I0 J-4 F100 
G01 Z10 
X148.923 Y81.12 
G01 Z-2 F50 
G03 I0 J-4 F100 
G01 Z10 
X100.016 Y55.943 
G01 Z-2 F50 
G03 I0 J-4 F100 
G01 Z10 
X50.981 Y81.757 
G01 Z-2 F50 
G03 I0 J-4 F100 
G01 Z10 
X100 Y51 
G01 Z-2 F50 
Y53 F100 
G01 Z10 
X99 Y52 
G01 Z-2 F50 
X101 F100 
G01 Z10 
X49 Y138 
G01 Z-2 F50 
X47 F100 
G01 Z10 
X101 Y168 
G01 Z-2 F50 
X99 F100 
G01 Z10 
X153 Y138 
G01 Z-2 F50 
X151 F100 
G00 Z10 
X150 Y77 
G01 Z-2 F50 
X148 F100 
G01 Z10 
Z134.99 
M5
M30
