(Made by a custom postprocessor, use at your own risk)
#region
(Created by SimCam 5/30/2018)
$Millimeters
$Mill
$DefineMillTool "N:" 1 0.00 0.00 0.00 3.00 50.00 0
$DefineMaterial "N:123" 0 222 184 135 255 255 255 1
$DefineMillWorkpiece "N::M:123" 0 200.00 200.00 10.00
$AddDefinedPart 0 0 0 0
#endregion

% 
(Engrave)
G92 Z10
T1 M06

(contorno)
G01 Z10 
X15 Y15 
G01 Z-2 F50 
Y185 F100 
X185 
Y15 
X15 
G01 Z10
G01 X100 Y162 F100
G01 Z-2
G03 I0 J-52
G01 Z10
G01 X113 Y80
G01 Z-2 F50 S1000 
X142 F100 
X100 Y110 
G01 Z10 
X57.526 Y80 
G01 Z-2 F50 
X100 Y110 F100 
Y162 
G01 Z10 
X84 Y134 
G01 Z-2 F50 
X100 Y162 F100   
X116 Y134 
G01 Z10 
X87 Y80 
G01 Z-2 F50 
X57 F100 
X70 Y108 
G01 Z10 
X142 Y80 
G01 Z-2 F50 
X130 Y108 F100 
G01 Z10 
X124 Y30 
G01 Z-2 F50 
X100 Y94 F100 
X75 Y30 
G01 Z10  
X54 Y134 
G01 Z-2 F50 
X146 F100 
X100 Y58 
X54 Y134 
G01 Z10 
X100 
G01 Z-2 F50 
X121.974 Y94.304 F100 
X77.952 Y94.427 
X100 Y134 
G01 Z10 
X48.5 Y140.5 
G01 Z-2 F50 
G03 I0 J-4 F100
G01 X49
Y136
X45.5
Y139
G01 Z10 
X99.978 Y172 
G01 Z-2 F50 
G03 I0 J-4 F100
G01 X101.978 
Y166.5
X97.978
Y170
G01 Z10 
X151.4 Y141.5 
G01 Z-2 F50 
G03 I0 J-4 F100 
G01 X152.978 
Y137.25
X149.9
Y140
G01 Z10 
X148.4 Y81.5 
G01 Z-2 F50 
G03 I0 J-4 F100
G01 X149.5 
Y75.5
X147
Y78
G01 Z10 
X100.016 Y55.943 
G01 Z-2 F50 
G03 I0 J-4 F100
G01 X102.016 
Y51.5
X98.5
Y53.5
G01 Z10 
X50.981 Y81.757 
G01 Z-2 F50 
G03 I0 J-4 F100 
G01 X51.981 
Y77.25
X49.5
Y79
G01 Z10
X70 Y28.5
G01 Z-2
X128.5
G01 Z50
G01 X0 Y0

M5
M30

